X:1
T:Contre raison
T:Noé Faignient
T:Source ; La fleur des chansons à 3---Louvain---P.Phalèse---1574. Editor : André Vierendeels (30/08/18) Notes : Original clefs : G2, C2, C3 Original note values have been halved Editorial accidentals above the staff Square bracket indicates ligature
T:Contre raison
T:©
T:©
T:©
T:©
Z:©
%%score [ 1 2 3 ]
L:1/8
Q:1/4=120
M:2/2
K:F
V:1 treble nm="Soprano" snm="S"
V:2 treble nm="Alto" snm="A"
V:3 treble-8 nm="Tenor" snm="T"
V:1
 z4 c4 | B2 A2 G2 B2 | AFGA B2 A2 | z2 A2 c3 c | cc B2 A2 f2- | f2 e2 d2 c2- | c2 g2 f2 e2 | %7
w: Con-|tre rai- son vous|m'es- tes fort es- tran- ge,|vous m'es- es|fort es- tran- ge, con-|* tre rai- son,|_ con- tre rai-|
 d2 f2 ecde | f4 e4 | z2 e2 f2 d2 | e4 z4 | z2 A2 B2 G2 | A4 z2 f2 | ffdd B4 | G2 g2 ggee | %15
w: son vous m'es- tes fort es-|tran- ge,|est- ce bien|fait?|Est ce bien|fait? En|au- rez vous lou- an-|ge, en au- rez vous lou-|
 c2 c2 z eee | fedc c=B c2 | z AAA BAGc | df e2 z2 c2 | c2 d2 c2 c2 | d3 c BA G2 | z2 e2 f3 e | %22
w: an- ge? D'ain- si m'a-|voir sou- dain des- hé- ri- té,|d'ain- si m'a- voir sou- dain des-|hé- ri- té, de|vo- stre'a- mour sans|l'a- voir me- ri- té,|sans l'a- voir|
 d c3/2B/4A/4=B c2 z c | c2 d2 e2 c2 | d2 f2 g2 e2 | d4 c2 z A | A2 =B2 c2 A2 |"^b" B2 d2 d2 c2 | %28
w: me- ri- * * * té, vous|fait- il mal si'à|vous ser- vir me|ren- ge, vous|fait il mal si'à|vous ser- vir me|
 =B4 c2 z c | c2 d2 e2 z e | e2 ^f2 g2 e2 | f2 f2 c2 c2 | BAAG/F/ G4 | A8 |] %34
w: ren- ge, vous|fait il mal, vous|fait il mal si'à|vous ser- vir me|ren- * * * * *|ge?|
V:2
 G4 F2 E2 | D2 F2 ECDE | F2 E2 D4 | G2 F2 G2 A2 | G/E<AG/4F/4G A4 | c4 B2 A2- | A2 G2 A3 G | %7
w: Con- tre rai-|son vous m'es- es fort es-|tran- ge, vous|m'es- tes fort es-|tran- * * * * * ge,|con- tre rai-|* son, con- tre|
 B2 AF GAGG | FG A2 G4 | z2 G2 A2 =B2 | c2 z G B2 G2 | A2 F2 F2 E2 | F2 c2 ccAA | F2 F2 G2 GG | %14
w: rai- son vous m'es- tes fort es-|tran- * * ge,|est ce bien|fait? Est ce bien|fait? Est ce bien|fait? En au- rez vous lou-|an- ge, en au- rez|
 EE C2 GGGG | A4 G2 GG | AGF G2 F2 E | FCCC DFEA | FF G2 z2 A2 | A2 B2 A2 A2 | %20
w: vous lou- an- ge, d'ain- si m'a-|voir, d'ain- si m'a-|voir sou- dain des- hé- ri-|té, d'ain- si ma- voir sou- dain des-|hé- ri- té, de|vo- stre'a- mour sans|
"^-natural" B3 A GF E2 | G4 A3 G | FE D2 z2 G2 | A2 F2 G2 A2 | B2 A2 c2 c2- | c2 =B2 c2 C2 | %26
w: l'a- voir me- ri- té,|sans l'a- voir|me- ri- té, vous|fait il mal si'à|vous ser- vir me|_ ren- ge, vous|
 F2 D2 C4 | z4 F4 | G2 G2 A3 A | A2 F2 G2 G2 | A4 G2 c2 | B2 A4 G2- | G2 F4 E2 | F8 |] %34
w: fait il mal,|vous|fait il mal si'à|vous ser- vir me|ren- ge, si'à|vous ser- vir|_ me ren-|ge?|
V:3
 z8 | z8 | z4 z2 f2 | e2 d2 c2 f2 | ecde f4 | c4 z2 f2- | f2 e2 d2 c2 | z2 d2 cABc | de f2 c4- | %9
w: ||Con-|tre rai- son vous|m'es- tes fort es- tran-|ge, con-|* tre rai- son|vous m'es- tes fort es-|tran- * * ge,|
 c4 z4 | z2 c2 d2 e2 | f2 d2 B2 c2 | F4 f2 ff | dd B2 G2 z g | ggee c4 | f4 c2 cc | fcde fd c2 | %17
w: _|est ce bien|fait? Est ce bien|fait? En au- rez|lou- an- * ge, en|au- rez vous lou- an-|ge, d'ain- si m'a-|voir sou- dain des- hé- ri- té|
 F2 FF BFcA | Bd c2 z2 f2 | f2 B2 f2 F2 | B3 c _ef c2- | c2 c2 F3 G | Bc G2 z2 c2 | f2 d2 c2 f2 | %24
w: d'ain- si m'a- voir sou- dain des-|hé- ri- té, de|vo- stre'a- mour sans|l'a- voir me- ri- té,|_ sans l'a- voir|me- ri- té, vous|fait il mal si'à|
 B2 d2 c2 c2 | g4 c2 z F | F2 G2 A2 F2 |"^b" G2 B2 B2 A2 | G4 F4 | z4 c4 | c2 d2 e2 c2 | %31
w: vous ser- vir me|ren- ge, vous|fait il mal si'à|vous ser- vir me|ren- ge,|vous|fait il mal si'à|
 d2 f2 f2 e2 | d4 c4 | F8 |] %34
w: vous ser- vir me|ren- *|ge?|

